flaticon/music/workstation-1.svg

<svg xmlns="http://www.w3.org/2000/svg" width="32" height="32" viewBox="0 0 24 24">
    <path d="M18 7.199219L19.601562 7.199219 19.601562 8C19.601562 8.222656 19.777344 8.398438 20 8.398438L21.199219 8.398438C21.421875 8.398438 21.601562 8.222656 21.601562 8L21.601562 7.199219C21.820312 7.199219 22 7.019531 22 6.800781 22 6.578125 21.820312 6.398438 21.601562 6.398438L21.601562 5.601562C21.601562 5.378906 21.421875 5.199219 21.199219 5.199219L20 5.199219C19.777344 5.199219 19.601562 5.378906 19.601562 5.601562L19.601562 6.398438 18 6.398438C17.777344 6.398438 17.601562 6.578125 17.601562 6.800781 17.601562 7.019531 17.777344 7.199219 18 7.199219zM20.398438 6L20.800781 6 20.800781 7.601562 20.398438 7.601562zM4.613281 6.1875C4.613281 6.183594 4.609375 6.183594 4.605469 6.179688 4.246094 5.820312 3.746094 5.601562 3.199219 5.601562 2.097656 5.601562 1.199219 6.496094 1.199219 7.601562 1.199219 8.703125 2.097656 9.601562 3.199219 9.601562 4.304688 9.601562 5.199219 8.703125 5.199219 7.601562 5.199219 7.050781 4.976562 6.554688 4.621094 6.195312 4.617188 6.191406 4.617188 6.1875 4.613281 6.1875zM3.199219 8.800781C2.539062 8.800781 2 8.261719 2 7.601562 2 6.9375 2.539062 6.398438 3.199219 6.398438 3.386719 6.398438 3.558594 6.445312 3.714844 6.519531L2.917969 7.316406C2.761719 7.472656 2.761719 7.726562 2.917969 7.882812 2.996094 7.960938 3.097656 8 3.199219 8 3.300781 8 3.40625 7.960938 3.484375 7.882812L4.28125 7.085938C4.355469 7.242188 4.398438 7.414062 4.398438 7.601562 4.398438 8.261719 3.863281 8.800781 3.199219 8.800781zM3.199219 10.800781C2.097656 10.800781 1.199219 11.695312 1.199219 12.800781 1.199219 13.902344 2.097656 14.800781 3.199219 14.800781 3.746094 14.800781 4.246094 14.578125 4.605469 14.21875 4.609375 14.21875 4.613281 14.214844 4.613281 14.214844 4.617188 14.210938 4.617188 14.207031 4.621094 14.207031 4.976562 13.84375 5.199219 13.347656 5.199219 12.800781 5.199219 11.695312 4.304688 10.800781 3.199219 10.800781zM2 12.800781C2 12.136719 2.539062 11.601562 3.199219 11.601562 3.863281 11.601562 4.398438 12.136719 4.398438 12.800781 4.398438 12.984375 4.355469 13.15625 4.28125 13.3125L3.484375 12.515625C3.328125 12.359375 3.074219 12.359375 2.917969 12.515625 2.761719 12.671875 2.761719 12.925781 2.917969 13.082031L3.714844 13.878906C3.558594 13.953125 3.386719 14 3.199219 14 2.539062 14 2 13.460938 2 12.800781zM3.199219 16C2.652344 16 2.15625 16.222656 1.792969 16.582031 1.792969 16.582031 1.789062 16.582031 1.785156 16.585938 1.78125 16.589844 1.78125 16.59375 1.78125 16.59375 1.421875 16.957031 1.199219 17.453125 1.199219 18 1.199219 19.101562 2.097656 20 3.199219 20 4.304688 20 5.199219 19.101562 5.199219 18 5.199219 16.898438 4.304688 16 3.199219 16zM3.199219 19.199219C2.539062 19.199219 2 18.660156 2 18 2 17.816406 2.046875 17.640625 2.121094 17.484375L2.917969 18.28125C2.996094 18.359375 3.097656 18.398438 3.199219 18.398438 3.300781 18.398438 3.40625 18.359375 3.484375 18.28125 3.640625 18.125 3.640625 17.875 3.484375 17.71875L2.6875 16.921875C2.84375 16.84375 3.015625 16.800781 3.199219 16.800781 3.863281 16.800781 4.398438 17.339844 4.398438 18 4.398438 18.660156 3.863281 19.199219 3.199219 19.199219zM22.398438 1.601562C22.398438 1.820312 22.222656 2 22 2 21.777344 2 21.601562 1.820312 21.601562 1.601562 21.601562 1.378906 21.777344 1.199219 22 1.199219 22.222656 1.199219 22.398438 1.378906 22.398438 1.601562zM22.398438 3.199219C22.398438 3.421875 22.222656 3.601562 22 3.601562 21.777344 3.601562 21.601562 3.421875 21.601562 3.199219 21.601562 2.980469 21.777344 2.800781 22 2.800781 22.222656 2.800781 22.398438 2.980469 22.398438 3.199219zM21.199219 1.601562C21.199219 1.820312 21.019531 2 20.800781 2 20.578125 2 20.398438 1.820312 20.398438 1.601562 20.398438 1.378906 20.578125 1.199219 20.800781 1.199219 21.019531 1.199219 21.199219 1.378906 21.199219 1.601562zM21.199219 3.199219C21.199219 3.421875 21.019531 3.601562 20.800781 3.601562 20.578125 3.601562 20.398438 3.421875 20.398438 3.199219 20.398438 2.980469 20.578125 2.800781 20.800781 2.800781 21.019531 2.800781 21.199219 2.980469 21.199219 3.199219zM20 1.601562C20 1.820312 19.820312 2 19.601562 2 19.378906 2 19.199219 1.820312 19.199219 1.601562 19.199219 1.378906 19.378906 1.199219 19.601562 1.199219 19.820312 1.199219 20 1.378906 20 1.601562zM20 3.199219C20 3.421875 19.820312 3.601562 19.601562 3.601562 19.378906 3.601562 19.199219 3.421875 19.199219 3.199219 19.199219 2.980469 19.378906 2.800781 19.601562 2.800781 19.820312 2.800781 20 2.980469 20 3.199219zM18.800781 1.601562C18.800781 1.820312 18.621094 2 18.398438 2 18.179688 2 18 1.820312 18 1.601562 18 1.378906 18.179688 1.199219 18.398438 1.199219 18.621094 1.199219 18.800781 1.378906 18.800781 1.601562zM18.800781 3.199219C18.800781 3.421875 18.621094 3.601562 18.398438 3.601562 18.179688 3.601562 18 3.421875 18 3.199219 18 2.980469 18.179688 2.800781 18.398438 2.800781 18.621094 2.800781 18.800781 2.980469 18.800781 3.199219zM18.800781 3.199219"/>
    <path d="M 23.601562 0 L 0.398438 0 C 0.179688 0 0 0.179688 0 0.398438 L 0 23.601562 C 0 23.820312 0.179688 24 0.398438 24 L 23.601562 24 C 23.820312 24 24 23.820312 24 23.601562 L 24 0.398438 C 24 0.179688 23.820312 0 23.601562 0 Z M 0.800781 0.800781 L 23.199219 0.800781 L 23.199219 4 L 0.800781 4 Z M 0.800781 23.199219 L 0.800781 4.800781 L 23.199219 4.800781 L 23.199219 23.199219 Z M 0.800781 23.199219"/>
    <path d="M3.082031 1.316406C3.007812 1.242188 2.90625 1.199219 2.800781 1.199219L2 1.199219C1.894531 1.199219 1.792969 1.242188 1.71875 1.316406L1.316406 1.71875C1.242188 1.792969 1.199219 1.894531 1.199219 2L1.199219 2.800781C1.199219 2.90625 1.242188 3.007812 1.316406 3.082031L1.71875 3.484375C1.792969 3.558594 1.894531 3.601562 2 3.601562L2.800781 3.601562C2.90625 3.601562 3.007812 3.558594 3.082031 3.484375L3.484375 3.082031C3.558594 3.007812 3.601562 2.90625 3.601562 2.800781L3.601562 2C3.601562 1.894531 3.558594 1.792969 3.484375 1.71875zM2.800781 2.632812L2.632812 2.800781 2.164062 2.800781 2 2.632812 2 2.164062 2.164062 2 2.632812 2 2.800781 2.164062zM5.882812 1.316406C5.808594 1.242188 5.707031 1.199219 5.601562 1.199219L4.800781 1.199219C4.695312 1.199219 4.59375 1.242188 4.515625 1.316406L4.117188 1.71875C4.042969 1.792969 4 1.894531 4 2L4 2.800781C4 2.90625 4.042969 3.007812 4.117188 3.082031L4.515625 3.484375C4.59375 3.558594 4.695312 3.601562 4.800781 3.601562L5.601562 3.601562C5.707031 3.601562 5.808594 3.558594 5.882812 3.484375L6.28125 3.082031C6.359375 3.007812 6.398438 2.90625 6.398438 2.800781L6.398438 2C6.398438 1.894531 6.359375 1.792969 6.28125 1.71875zM5.601562 2.632812L5.433594 2.800781 4.964844 2.800781 4.800781 2.632812 4.800781 2.164062 4.964844 2 5.433594 2 5.601562 2.164062zM8.683594 1.316406C8.609375 1.242188 8.507812 1.199219 8.398438 1.199219L7.601562 1.199219C7.492188 1.199219 7.390625 1.242188 7.316406 1.316406L6.917969 1.71875C6.84375 1.792969 6.800781 1.894531 6.800781 2L6.800781 2.800781C6.800781 2.90625 6.84375 3.007812 6.917969 3.082031L7.316406 3.484375C7.390625 3.558594 7.492188 3.601562 7.601562 3.601562L8.398438 3.601562C8.507812 3.601562 8.609375 3.558594 8.683594 3.484375L9.082031 3.082031C9.15625 3.007812 9.199219 2.90625 9.199219 2.800781L9.199219 2C9.199219 1.894531 9.15625 1.792969 9.082031 1.71875zM8.398438 2.632812L8.234375 2.800781 7.765625 2.800781 7.601562 2.632812 7.601562 2.164062 7.765625 2 8.234375 2 8.398438 2.164062zM11.484375 1.316406C11.40625 1.242188 11.304688 1.199219 11.199219 1.199219L10.398438 1.199219C10.292969 1.199219 10.191406 1.242188 10.117188 1.316406L9.71875 1.71875C9.640625 1.792969 9.601562 1.894531 9.601562 2L9.601562 2.800781C9.601562 2.90625 9.640625 3.007812 9.71875 3.082031L10.117188 3.484375C10.191406 3.558594 10.292969 3.601562 10.398438 3.601562L11.199219 3.601562C11.304688 3.601562 11.40625 3.558594 11.484375 3.484375L11.882812 3.082031C11.957031 3.007812 12 2.90625 12 2.800781L12 2C12 1.894531 11.957031 1.792969 11.882812 1.71875zM11.199219 2.632812L11.035156 2.800781 10.566406 2.800781 10.398438 2.632812 10.398438 2.164062 10.566406 2 11.035156 2 11.199219 2.164062zM22 8.800781L6 8.800781C5.777344 8.800781 5.601562 8.980469 5.601562 9.199219L5.601562 22C5.601562 22.222656 5.777344 22.398438 6 22.398438L22 22.398438C22.222656 22.398438 22.398438 22.222656 22.398438 22L22.398438 9.199219C22.398438 8.980469 22.222656 8.800781 22 8.800781zM21.601562 15.199219L19.199219 15.199219 19.199219 12.800781 21.601562 12.800781zM18.398438 15.199219L16 15.199219 16 12.800781 18.398438 12.800781zM15.199219 15.199219L12.800781 15.199219 12.800781 12.800781 15.199219 12.800781zM12 15.199219L9.601562 15.199219 9.601562 12.800781 12 12.800781zM8.800781 15.199219L6.398438 15.199219 6.398438 12.800781 8.800781 12.800781zM6.398438 16L8.800781 16 8.800781 18.398438 6.398438 18.398438zM9.601562 16L12 16 12 18.398438 9.601562 18.398438zM12.800781 16L15.199219 16 15.199219 18.398438 12.800781 18.398438zM16 16L18.398438 16 18.398438 18.398438 16 18.398438zM19.199219 16L21.601562 16 21.601562 18.398438 19.199219 18.398438zM21.601562 12L19.199219 12 19.199219 9.601562 21.601562 9.601562zM18.398438 12L16 12 16 9.601562 18.398438 9.601562zM15.199219 12L12.800781 12 12.800781 9.601562 15.199219 9.601562zM12 12L9.601562 12 9.601562 9.601562 12 9.601562zM6.398438 9.601562L8.800781 9.601562 8.800781 12 6.398438 12zM6.398438 19.199219L8.800781 19.199219 8.800781 21.601562 6.398438 21.601562zM9.601562 19.199219L12 19.199219 12 21.601562 9.601562 21.601562zM12.800781 19.199219L15.199219 19.199219 15.199219 21.601562 12.800781 21.601562zM16 19.199219L18.398438 19.199219 18.398438 21.601562 16 21.601562zM21.601562 21.601562L19.199219 21.601562 19.199219 19.199219 21.601562 19.199219zM4.800781 20.398438L1.601562 20.398438C1.378906 20.398438 1.199219 20.578125 1.199219 20.800781L1.199219 22C1.199219 22.222656 1.378906 22.398438 1.601562 22.398438L4.800781 22.398438C5.019531 22.398438 5.199219 22.222656 5.199219 22L5.199219 20.800781C5.199219 20.578125 5.019531 20.398438 4.800781 20.398438zM4.398438 21.601562L2 21.601562 2 21.199219 4.398438 21.199219zM12 7.199219L12.800781 7.199219 12.800781 8C12.800781 8.222656 12.980469 8.398438 13.199219 8.398438L14.398438 8.398438C14.621094 8.398438 14.800781 8.222656 14.800781 8L14.800781 7.199219 15.601562 7.199219C15.820312 7.199219 16 7.019531 16 6.800781 16 6.578125 15.820312 6.398438 15.601562 6.398438L14.800781 6.398438 14.800781 5.601562C14.800781 5.378906 14.621094 5.199219 14.398438 5.199219L13.199219 5.199219C12.980469 5.199219 12.800781 5.378906 12.800781 5.601562L12.800781 6.398438 12 6.398438C11.777344 6.398438 11.601562 6.578125 11.601562 6.800781 11.601562 7.019531 11.777344 7.199219 12 7.199219zM13.601562 6L14 6 14 7.601562 13.601562 7.601562zM6 7.199219L6 8C6 8.222656 6.179688 8.398438 6.398438 8.398438L7.601562 8.398438C7.820312 8.398438 8 8.222656 8 8L8 7.199219 9.601562 7.199219C9.820312 7.199219 10 7.019531 10 6.800781 10 6.578125 9.820312 6.398438 9.601562 6.398438L8 6.398438 8 5.601562C8 5.378906 7.820312 5.199219 7.601562 5.199219L6.398438 5.199219C6.179688 5.199219 6 5.378906 6 5.601562L6 6.398438C5.777344 6.398438 5.601562 6.578125 5.601562 6.800781 5.601562 7.019531 5.777344 7.199219 6 7.199219zM6.800781 6L7.199219 6 7.199219 7.601562 6.800781 7.601562zM6.800781 6"/>
</svg>

<svg xmlns="http://www.w3.org/2000/svg" width="32" height="32" viewBox="0 0 24 24">
    <path d="M18 7.2h1.602V8c0 .223.175.398.398.398h1.2A.398.398 0 0 0 21.601 8v-.8a.4.4 0 0 0 0-.802v-.796a.402.402 0 0 0-.403-.403H20a.398.398 0 0 0-.398.403v.796H18a.398.398 0 0 0-.398.403c0 .219.175.398.398.398zM20.398 6h.403v1.602h-.403zm0 0M4.613 6.188c0-.004-.004-.004-.008-.008A2.001 2.001 0 0 0 1.2 7.602c0 1.101.899 2 2 2a2.001 2.001 0 0 0 1.422-3.407c-.004-.004-.004-.008-.008-.008zM3.2 8.8a1.202 1.202 0 0 1 0-2.403c.188 0 .36.047.516.122l-.797.796a.4.4 0 0 0 .566.567l.797-.797A1.2 1.2 0 0 1 3.2 8.8zm0 0M3.2 10.8c-1.102 0-2 .895-2 2 0 1.102.898 2 2 2 .546 0 1.046-.222 1.405-.581.004 0 .008-.004.008-.004.004-.004.004-.008.008-.008A1.999 1.999 0 0 0 3.2 10.801zm-1.2 2a1.2 1.2 0 0 1 2.398 0c0 .184-.043.356-.117.512l-.797-.796a.4.4 0 0 0-.566.566l.797.797a1.192 1.192 0 0 1-.516.121C2.54 14 2 13.46 2 12.8zm0 0M3.2 16c-.548 0-1.044.223-1.407.582 0 0-.004 0-.008.004s-.004.008-.004.008c-.36.363-.582.86-.582 1.406 0 1.102.899 2 2 2 1.106 0 2-.898 2-2 0-1.102-.894-2-2-2zm0 3.2c-.66 0-1.2-.54-1.2-1.2 0-.184.047-.36.121-.516l.797.797c.078.078.18.117.281.117.102 0 .207-.039.285-.117a.396.396 0 0 0 0-.562l-.796-.797c.156-.078.328-.121.511-.121a1.2 1.2 0 0 1 0 2.398zm0 0M22.398 1.602a.398.398 0 1 1-.796 0 .398.398 0 1 1 .796 0zm0 0M22.398 3.2a.398.398 0 1 1-.796 0 .398.398 0 1 1 .796 0zm0 0M21.2 1.602a.4.4 0 1 1-.801-.004.4.4 0 0 1 .8.004zm0 0M21.2 3.2a.401.401 0 1 1-.803.002.401.401 0 0 1 .802-.003zm0 0M20 1.602a.4.4 0 1 1-.8-.004.4.4 0 0 1 .8.004zm0 0M20 3.2a.401.401 0 1 1-.802.002.401.401 0 0 1 .802-.003zm0 0M18.8 1.602A.401.401 0 1 1 18 1.597a.401.401 0 0 1 .802.005zm0 0M18.8 3.2a.401.401 0 1 1 0 0zm0 0"/>
    <path d="M23.602 0H.398A.4.4 0 0 0 0 .398v23.204A.4.4 0 0 0 .398 24h23.204a.4.4 0 0 0 .398-.398V.398A.4.4 0 0 0 23.602 0zM.8.8h22.398V4H.801zm0 22.4V4.8h22.398v18.4zm0 0"/>
    <path d="M3.082 1.316a.4.4 0 0 0-.281-.117H2a.4.4 0 0 0-.281.117l-.403.403A.4.4 0 0 0 1.2 2v.8a.4.4 0 0 0 .117.282l.403.402A.4.4 0 0 0 2 3.602h.8a.4.4 0 0 0 .282-.118l.402-.402a.4.4 0 0 0 .118-.281V2a.4.4 0 0 0-.118-.281zm-.281 1.317l-.168.168h-.469L2 2.633v-.469L2.164 2h.469l.168.164zm0 0M5.883 1.316a.4.4 0 0 0-.281-.117H4.8a.416.416 0 0 0-.285.117l-.399.403A.4.4 0 0 0 4 2v.8a.4.4 0 0 0 .117.282l.399.402c.078.075.18.118.285.118h.8a.4.4 0 0 0 .282-.118l.398-.402a.384.384 0 0 0 .117-.281V2a.384.384 0 0 0-.117-.281zm-.281 1.317l-.168.168h-.47l-.163-.168v-.469L4.965 2h.469l.168.164zm0 0M8.684 1.316a.402.402 0 0 0-.286-.117h-.796c-.11 0-.211.043-.286.117l-.398.403A.4.4 0 0 0 6.801 2v.8a.4.4 0 0 0 .117.282l.398.402a.402.402 0 0 0 .286.118h.796c.11 0 .211-.043.286-.118l.398-.402a.4.4 0 0 0 .117-.281V2a.4.4 0 0 0-.117-.281zm-.286 1.317l-.164.168h-.468l-.164-.168v-.469L7.766 2h.468l.164.164zm0 0M11.484 1.316A.416.416 0 0 0 11.2 1.2h-.8a.4.4 0 0 0-.282.117l-.398.403A.384.384 0 0 0 9.602 2v.8c0 .106.039.208.117.282l.398.402a.4.4 0 0 0 .281.118h.801a.416.416 0 0 0 .285-.118l.399-.402A.4.4 0 0 0 12 2.801V2a.4.4 0 0 0-.117-.281zM11.2 2.633l-.164.168h-.469l-.168-.168v-.469L10.566 2h.47l.163.164zm0 0M22 8.8H6a.398.398 0 0 0-.398.4V22c0 .223.175.398.398.398h16a.395.395 0 0 0 .398-.398V9.2A.398.398 0 0 0 22 8.8zm-.398 6.4h-2.403v-2.4h2.403zm-3.204 0H16v-2.4h2.398zm-3.199 0h-2.398v-2.4h2.398zM12 15.2H9.602v-2.4H12zm-3.2 0H6.399v-2.4h2.403zm-2.402.8h2.403v2.398H6.398zm3.204 0H12v2.398H9.602zm3.199 0h2.398v2.398h-2.398zM16 16h2.398v2.398H16zm3.2 0h2.402v2.398h-2.403zm2.402-4h-2.403V9.602h2.403zm-3.204 0H16V9.602h2.398zM15.2 12h-2.398V9.602h2.398zM12 12H9.602V9.602H12zM6.398 9.602h2.403V12H6.398zm0 9.597h2.403v2.403H6.398zm3.204 0H12v2.403H9.602zm3.199 0h2.398v2.403h-2.398zm3.199 0h2.398v2.403H16zm5.602 2.403h-2.403v-2.403h2.403zm0 0M4.8 20.398H1.603a.402.402 0 0 0-.403.403V22c0 .223.18.398.403.398H4.8A.398.398 0 0 0 5.199 22v-1.2a.401.401 0 0 0-.398-.402zm-.402 1.204H2v-.403h2.398zm0 0M12 7.2h.8V8c0 .223.18.398.4.398h1.198A.398.398 0 0 0 14.801 8v-.8h.8a.4.4 0 0 0 0-.802h-.8v-.796a.402.402 0 0 0-.403-.403H13.2a.401.401 0 0 0-.398.403v.796H12a.398.398 0 0 0-.398.403c0 .219.175.398.398.398zM13.602 6H14v1.602h-.398zm0 0M6 7.2V8c0 .223.18.398.398.398h1.204A.398.398 0 0 0 8 8v-.8h1.602a.4.4 0 0 0 0-.802H8v-.796a.401.401 0 0 0-.398-.403H6.398A.401.401 0 0 0 6 5.602v.796a.398.398 0 0 0-.398.403c0 .219.175.398.398.398zM6.8 6h.4v1.602h-.4zm0 0"/>
</svg>
